assets/images/icons/error.svg

<svg width="16" height="16" viewBox="0 0 16 16" fill="none" xmlns="http://www.w3.org/2000/svg">
<path d="M8 0.25C3.71875 0.25 0.25 3.71875 0.25 8C0.25 12.2812 3.71875 15.75 8 15.75C12.2812 15.75 15.75 12.2812 15.75 8C15.75 3.71875 12.2812 0.25 8 0.25ZM11.7812 10.0625C11.9375 10.1875 11.9375 10.4375 11.7812 10.5938L10.5625 11.8125C10.4062 11.9688 10.1562 11.9688 10.0312 11.8125L8 9.75L5.9375 11.8125C5.8125 11.9688 5.5625 11.9688 5.40625 11.8125L4.1875 10.5625C4.03125 10.4375 4.03125 10.1875 4.1875 10.0312L6.25 8L4.1875 5.96875C4.03125 5.84375 4.03125 5.59375 4.1875 5.4375L5.4375 4.21875C5.5625 4.0625 5.8125 4.0625 5.96875 4.21875L8 6.25L10.0312 4.21875C10.1562 4.0625 10.4062 4.0625 10.5625 4.21875L11.7812 5.4375C11.9375 5.59375 11.9375 5.84375 11.7812 5.96875L9.75 8L11.7812 10.0625Z" fill="#DC3232"/>
</svg>

<svg width="16" height="16" fill="none" xmlns="http://www.w3.org/2000/svg"><path d="M8 .25A7.749 7.749 0 00.25 8 7.749 7.749 0 008 15.75 7.749 7.749 0 0015.75 8 7.749 7.749 0 008 .25zm3.781 9.813c.156.124.156.374 0 .53l-1.219 1.22c-.156.156-.406.156-.53 0L8 9.75l-2.063 2.063c-.125.156-.375.156-.53 0l-1.22-1.25c-.156-.126-.156-.376 0-.532L6.25 8 4.187 5.969c-.156-.125-.156-.375 0-.532l1.25-1.218c.125-.157.375-.157.532 0L8 6.25l2.031-2.031c.125-.157.375-.157.531 0l1.22 1.218c.155.157.155.407 0 .532L9.75 8l2.031 2.063z" fill="#DC3232"/></svg>
